X:221074 
T:HUMORS OF BALLINLASS (hornpipe), The 
B:DMI.0942
Z:Nordberg/Black
R:hornpipe
%Q:1/4=150
M:C|
L:1/8
K:G
GE|D2EF G2G2|c3A BAGB|cBcd e2dB|cABG EAGE|
D2EF G2B2|c2cA Bdgd|B2GB cAFA|G2GF G2:|
ef|gfed e2ef|gede d3B|cBcd e2dB|1 cABG E2 ef|
gfed eddf|gede d2c2|B2GB cAFA|G2GF G2:|
[2 cABG EAGE|D2EF G2B2|c2cA Bdgd|B2GB A2FA|\
G2GFG4|]

%%%

